X:29
T:False Alarm
R:strathspey
C:Paul S. Cranford
O:Cape Breton Island
S:http://www.cranfordpub.com
D:currently unrecorded
B:currently unpublished in book form
Z:psc
H:                                                        copyrights Cranford Publications, SOCAN
L:1/8
Q:300
M:C|
K:C
e|g<cg>e d<cc>G|(A/B/c) G>c ea|g<cg>e dG|A/B/c/A/ G>g e<cc>a|
g<cg>e d<cc>G|(A/B/c) G>c ec|e/f/g/e/ c>e dG|(A/B/c) G>c E<CC'||
||e|g>c a/g/f/e/ g<ce>a|g>ce>g a>df<a|g>c a/g/f/e/ g<ce>d|c>AG>E G<cc>e|
g>c a/g/f/e/ g<ce>a|g>ce>g a>df>a|g>c'e>g dG|A/B/c/A/ G>g e<cc|]
